build/img/icon/logo_nordcore.svg

<svg width="162.245697" height="41.000000" viewBox="0 0 162.246 41" fill="none" xmlns="http://www.w3.org/2000/svg" xmlns:xlink="http://www.w3.org/1999/xlink">
	<desc>
			Created with Pixso.
	</desc>
	<defs>
		<linearGradient id="paint_linear_42_1016_0" x1="31.178637" y1="33.332314" x2="17.352526" y2="3.165380" gradientUnits="userSpaceOnUse">
			<stop stop-color="#6BFFFE"/>
			<stop offset="0.290000" stop-color="#64F5FE"/>
			<stop offset="0.420000" stop-color="#3EBAFB"/>
			<stop offset="0.500000" stop-color="#145CEF"/>
		</linearGradient>
		<linearGradient id="paint_linear_42_1017_0" x1="-4.074503" y1="20.598986" x2="18.103054" y2="21.728727" gradientUnits="userSpaceOnUse">
			<stop stop-color="#5CE1A9"/>
			<stop offset="0.060000" stop-color="#50DFA5"/>
			<stop offset="0.160000" stop-color="#30D899"/>
			<stop offset="0.280000" stop-color="#00CE88"/>
			<stop offset="0.430000" stop-color="#00CB87"/>
			<stop offset="0.530000" stop-color="#00C284"/>
			<stop offset="0.610000" stop-color="#00B380"/>
			<stop offset="0.690000" stop-color="#009D79"/>
			<stop offset="0.750000" stop-color="#008973"/>
		</linearGradient>
		<linearGradient id="paint_linear_42_1018_0" x1="0.738899" y1="14.010101" x2="17.674232" y2="14.868668" gradientUnits="userSpaceOnUse">
			<stop stop-color="#5CE1A9"/>
			<stop offset="0.230000" stop-color="#C8FFEB"/>
			<stop offset="0.650000" stop-color="#C8FFEB"/>
			<stop offset="1.000000" stop-color="#008973"/>
		</linearGradient>
		<linearGradient id="paint_linear_42_1019_0" x1="17.380859" y1="20.416168" x2="19.716595" y2="20.545044" gradientUnits="userSpaceOnUse">
			<stop stop-color="#1A5EF0"/>
			<stop offset="0.230000" stop-color="#125EF1"/>
			<stop offset="0.990000" stop-color="#69FCFE"/>
		</linearGradient>
	</defs>
	<path id="Vector" d="M18.3956 0L18.3956 17.3584L18.3956 21.1033L18.3485 40.4009C18.3409 40.5303 18.378 40.6587 18.4537 40.7642C18.5294 40.8694 18.6392 40.9456 18.7644 40.9797C18.8896 41.0137 19.0228 41.0037 19.1415 40.9512C19.2602 40.8987 19.3572 40.8069 19.4163 40.6912L37.6853 12.428L18.3956 0Z" fill="url(#paint_linear_42_1016_0)" fill-opacity="1.000000" fill-rule="nonzero"/>
	<path id="Vector" d="M18.3956 0L0.0715637 28.2947C0.0144043 28.3962 -0.00946045 28.5134 0.00338745 28.6292C0.0162048 28.7451 0.065094 28.8542 0.143097 28.9409C0.2211 29.0276 0.324341 29.0876 0.438263 29.1125C0.552185 29.1375 0.671051 29.126 0.778137 29.0798L14.9098 22.7048L18.3485 21.1348L18.3956 0Z" fill="url(#paint_linear_42_1017_0)" fill-opacity="1.000000" fill-rule="nonzero"/>
	<path id="Vector" d="M0.0252991 28.6873C-0.000366211 28.6084 -0.00662231 28.5247 0.00704956 28.4429C0.0207214 28.3611 0.053894 28.2839 0.10379 28.2175L18.3956 0.03125L18.3956 0.73584L0.12735 28.9221C0.0662537 28.8586 0.0300293 28.7754 0.0252991 28.6873Z" fill="url(#paint_linear_42_1018_0)" fill-opacity="1.000000" fill-rule="nonzero"/>
	<path id="Vector" d="M18.6512 40.9451C18.5531 40.9067 18.4681 40.8364 18.4077 40.7439C18.3473 40.6511 18.3142 40.5405 18.313 40.427L18.3547 0L18.7016 0.267578L18.7661 40.8723C18.7661 40.9316 18.7046 40.9705 18.6512 40.9451Z" fill="url(#paint_linear_42_1019_0)" fill-opacity="1.000000" fill-rule="nonzero"/>
	<path id="Vector" d="M46.6854 29.644L46.6854 10.9746L52.8483 10.9746L57.2448 27.4614L57.6688 27.4614L57.6688 10.9746L60.8091 10.9746L60.8091 29.644L54.709 29.644L50.3046 13.1572L49.8571 13.1572L49.8571 29.644L46.6854 29.644Z" fill="#FCFCFC" fill-opacity="1.000000" fill-rule="nonzero"/>
	<path id="Vector" d="M70.8427 30.0142C69.6188 30.0427 68.4064 29.7734 67.3098 29.2292C66.2857 28.6934 65.4359 27.8762 64.8603 26.874C64.2388 25.7739 63.9294 24.5254 63.9653 23.2625L63.9653 22.8542C63.9305 21.5864 64.2398 20.333 64.8603 19.2271C65.4312 18.2212 66.2823 17.4028 67.3098 16.8718C68.4076 16.3313 69.6192 16.062 70.8427 16.0867C72.0638 16.0601 73.2733 16.3296 74.3678 16.8718C75.3908 17.4036 76.2366 18.2219 76.8015 19.2271C77.4221 20.333 77.7314 21.5864 77.6965 22.8542L77.6965 23.2781C77.7325 24.541 77.423 25.7898 76.8015 26.8896C76.232 27.8911 75.3874 28.7085 74.3678 29.2449C73.2731 29.7852 72.0629 30.0493 70.8427 30.0142ZM70.8427 27.2979C71.3507 27.3167 71.8571 27.2302 72.33 27.0437C72.8029 26.8572 73.2321 26.575 73.5905 26.2144C73.9628 25.8083 74.2493 25.3315 74.4328 24.812C74.6163 24.2927 74.693 23.7417 74.6582 23.1919L74.6582 22.9248C74.6922 22.374 74.6152 21.822 74.4318 21.3013C74.2484 20.7808 73.9623 20.3022 73.5905 19.8945C72.8439 19.2002 71.8622 18.8145 70.8427 18.8145C69.8232 18.8145 68.8415 19.2002 68.0949 19.8945C67.7231 20.3022 67.437 20.7808 67.2536 21.3013C67.0702 21.822 66.9932 22.374 67.0272 22.9248L67.0272 23.1919C66.9924 23.7417 67.0691 24.2927 67.2526 24.812C67.436 25.3315 67.7225 25.8083 68.0949 26.2144C68.453 26.5752 68.8821 26.8579 69.3551 27.0444C69.8281 27.231 70.3347 27.3171 70.8427 27.2979Z" fill="#FCFCFC" fill-opacity="1.000000" fill-rule="nonzero"/>
	<path id="Vector" d="M80.9546 29.644L80.9546 16.4702L83.9615 16.4702L83.9615 17.9932L84.4169 17.9932C84.5773 17.4792 84.9323 17.0481 85.4061 16.792C85.9153 16.5298 86.4823 16.4004 87.0548 16.4153L88.625 16.4153L88.625 19.1394L86.9998 19.1394C86.2182 19.1047 85.4507 19.356 84.8408 19.8459C84.5511 20.1233 84.3269 20.4617 84.1843 20.8364C84.0417 21.2114 83.9844 21.6133 84.0165 22.0129L84.0165 29.644L80.9546 29.644Z" fill="#FCFCFC" fill-opacity="1.000000" fill-rule="nonzero"/>
	<path id="Vector" d="M96.2796 30.0142C95.2332 30.0203 94.2039 29.7493 93.2962 29.229C92.3536 28.686 91.5855 27.8853 91.0822 26.9209C90.5191 25.7888 90.2492 24.5334 90.2971 23.27L90.2971 22.854C90.2492 21.5881 90.5191 20.3303 91.0822 19.1956C91.5822 18.2358 92.3445 17.438 93.2805 16.8953C94.1928 16.3721 95.2279 16.1011 96.2796 16.1101C96.9847 16.0942 97.6877 16.1951 98.36 16.4084C98.8627 16.564 99.3297 16.8174 99.7339 17.1543C100.052 17.4346 100.318 17.7695 100.519 18.1436L100.967 18.1436L100.967 10.9756L104.013 10.9756L104.013 29.645L101.053 29.645L101.053 27.9099L100.598 27.9099C100.236 28.4951 99.7477 28.9915 99.1687 29.3623C98.2887 29.854 97.2853 30.0803 96.2796 30.0142ZM97.1902 27.3525C97.6978 27.3672 98.2029 27.2788 98.6752 27.0925C99.1476 26.9062 99.5772 26.6262 99.9381 26.269C100.318 25.8562 100.611 25.3708 100.798 24.8418C100.986 24.313 101.064 23.7517 101.029 23.1917L101.029 22.9246C101.07 22.363 100.995 21.7991 100.81 21.2673C100.625 20.7356 100.334 20.2468 99.9538 19.8313C99.5912 19.4753 99.1598 19.1973 98.686 19.0137C98.2122 18.8301 97.7059 18.7449 97.1981 18.7637C96.6934 18.7512 96.1913 18.8391 95.7209 19.0225C95.2505 19.2056 94.8213 19.4807 94.4582 19.8313C94.0698 20.2424 93.771 20.7295 93.5804 21.262C93.3899 21.7944 93.3118 22.3606 93.3512 22.9246L93.3512 23.1917C93.315 23.7529 93.3946 24.3159 93.585 24.8455C93.7755 25.3748 94.0726 25.8594 94.4582 26.269C94.8185 26.6226 95.2458 26.9004 95.715 27.0864C96.1841 27.2725 96.6857 27.3628 97.1902 27.3525Z" fill="#FCFCFC" fill-opacity="1.000000" fill-rule="nonzero"/>
	<path id="Vector" d="M114.085 30.0139C112.882 30.0359 111.692 29.7666 110.615 29.2288C109.599 28.7063 108.754 27.9023 108.182 26.9128C107.559 25.7991 107.25 24.5376 107.287 23.2622L107.287 22.8538C107.25 21.5784 107.559 20.3169 108.182 19.2031C108.749 18.1997 109.594 17.3818 110.615 16.8479C111.692 16.3101 112.882 16.0408 114.085 16.0627C115.203 16.0349 116.312 16.2632 117.328 16.7302C118.192 17.1487 118.937 17.7778 119.495 18.5593C120.05 19.3296 120.416 20.22 120.562 21.158L117.603 21.7705C117.54 21.239 117.369 20.7261 117.1 20.2632C116.827 19.8069 116.433 19.4348 115.962 19.1875C115.406 18.9043 114.787 18.7664 114.164 18.7871C113.484 18.7764 112.812 18.9355 112.209 19.2502C111.621 19.5686 111.145 20.0591 110.843 20.6555C110.499 21.3501 110.332 22.1187 110.356 22.8931L110.356 23.1602C110.331 23.9297 110.498 24.6934 110.843 25.3818C111.151 25.9736 111.626 26.4622 112.209 26.7871C112.809 27.1106 113.482 27.2754 114.164 27.2661C114.61 27.2981 115.058 27.2402 115.482 27.0959C115.905 26.9517 116.295 26.7239 116.629 26.426C117.207 25.835 117.576 25.0713 117.681 24.2512L120.641 24.9421C120.437 25.8574 120.047 26.7207 119.495 27.478C118.93 28.2534 118.187 28.8811 117.328 29.3074C116.317 29.7915 115.206 30.0334 114.085 30.0139Z" fill="#FCFCFC" fill-opacity="1.000000" fill-rule="nonzero"/>
	<path id="Vector" d="M129.874 30.0142C128.65 30.0427 127.437 29.7734 126.341 29.2292C125.317 28.6934 124.467 27.8762 123.891 26.874C123.27 25.7739 122.96 24.5254 122.996 23.2625L122.996 22.8542C122.961 21.5864 123.271 20.333 123.891 19.2271C124.462 18.2212 125.313 17.4028 126.341 16.8718C127.439 16.3313 128.65 16.062 129.874 16.0867C131.095 16.0601 132.304 16.3296 133.399 16.8718C134.422 17.4036 135.268 18.2219 135.832 19.2271C136.453 20.333 136.762 21.5864 136.727 22.8542L136.727 23.2781C136.763 24.541 136.454 25.7898 135.832 26.8896C135.263 27.8911 134.418 28.7085 133.399 29.2449C132.304 29.7852 131.094 30.0493 129.874 30.0142ZM129.874 27.2979C130.382 27.3167 130.888 27.2302 131.361 27.0437C131.834 26.8572 132.263 26.575 132.621 26.2144C132.998 25.8103 133.289 25.3342 133.476 24.8147C133.664 24.2954 133.744 23.7432 133.713 23.1919L133.713 22.9248C133.747 22.374 133.67 21.822 133.486 21.3013C133.303 20.7808 133.017 20.3022 132.645 19.8945C131.898 19.2002 130.917 18.8145 129.897 18.8145C128.878 18.8145 127.896 19.2002 127.149 19.8945C126.778 20.3022 126.491 20.7808 126.308 21.3013C126.125 21.822 126.048 22.374 126.082 22.9248L126.082 23.1919C126.047 23.7417 126.124 24.2927 126.307 24.812C126.491 25.3315 126.777 25.8083 127.149 26.2144C127.505 26.5723 127.93 26.8533 128.399 27.0396C128.867 27.2261 129.369 27.314 129.874 27.2979Z" fill="#FCFCFC" fill-opacity="1.000000" fill-rule="nonzero"/>
	<path id="Vector" d="M139.993 29.644L139.993 16.4702L143 16.4702L143 17.9932L143.456 17.9932C143.616 17.4792 143.971 17.0481 144.445 16.792C144.954 16.5298 145.521 16.4004 146.094 16.4153L147.664 16.4153L147.664 19.1394L146.015 19.1394C145.231 19.1035 144.461 19.3547 143.848 19.8459C143.559 20.1233 143.334 20.4617 143.192 20.8364C143.049 21.2114 142.992 21.6133 143.024 22.0129L143.024 29.644L139.993 29.644Z" fill="#FCFCFC" fill-opacity="1.000000" fill-rule="nonzero"/>
	<path id="Vector" d="M155.954 30.0137C154.742 30.0417 153.543 29.7522 152.477 29.1738C151.481 28.6321 150.663 27.8142 150.121 26.8184C149.538 25.7144 149.249 24.4788 149.281 23.2307L149.281 22.9087C149.237 21.6633 149.507 20.4268 150.066 19.313C150.609 18.3181 151.427 17.5005 152.422 16.9578C153.475 16.3828 154.66 16.0933 155.86 16.1177C157.035 16.093 158.195 16.3831 159.22 16.9578C160.174 17.5159 160.949 18.3323 161.458 19.313C162.006 20.4138 162.276 21.6323 162.243 22.8616L162.243 23.9529L152.351 23.9529C152.349 24.4199 152.445 24.8821 152.633 25.3093C152.821 25.7368 153.096 26.1199 153.442 26.4338C154.145 27.0596 155.061 27.3938 156.002 27.3679C156.796 27.4329 157.586 27.1975 158.216 26.7085C158.691 26.2935 159.074 25.7825 159.338 25.209L161.874 26.5122C161.575 27.0759 161.212 27.603 160.791 28.0825C160.265 28.6653 159.627 29.1353 158.914 29.4641C157.982 29.8696 156.97 30.0576 155.954 30.0137ZM152.406 21.6133L159.15 21.6133C159.132 21.2185 159.035 20.8313 158.863 20.4751C158.692 20.1189 158.45 19.801 158.153 19.5408C157.507 19.002 156.685 18.7222 155.845 18.7556C155.014 18.6934 154.192 18.9558 153.551 19.4871C152.909 20.0186 152.499 20.7778 152.406 21.6055L152.406 21.6133Z" fill="#FCFCFC" fill-opacity="1.000000" fill-rule="nonzero"/>
</svg>

<svg width="162.246" height="41" viewBox="0 0 162.246 41" fill="none" xmlns="http://www.w3.org/2000/svg"><defs><linearGradient id="paint_linear_42_1016_0" x1="31.179" y1="33.332" x2="17.353" y2="3.165" gradientUnits="userSpaceOnUse"><stop stop-color="#6BFFFE"/><stop offset=".29" stop-color="#64F5FE"/><stop offset=".42" stop-color="#3EBAFB"/><stop offset=".5" stop-color="#145CEF"/></linearGradient><linearGradient id="paint_linear_42_1017_0" x1="-4.075" y1="20.599" x2="18.103" y2="21.729" gradientUnits="userSpaceOnUse"><stop stop-color="#5CE1A9"/><stop offset=".06" stop-color="#50DFA5"/><stop offset=".16" stop-color="#30D899"/><stop offset=".28" stop-color="#00CE88"/><stop offset=".43" stop-color="#00CB87"/><stop offset=".53" stop-color="#00C284"/><stop offset=".61" stop-color="#00B380"/><stop offset=".69" stop-color="#009D79"/><stop offset=".75" stop-color="#008973"/></linearGradient><linearGradient id="paint_linear_42_1018_0" x1=".739" y1="14.01" x2="17.674" y2="14.869" gradientUnits="userSpaceOnUse"><stop stop-color="#5CE1A9"/><stop offset=".23" stop-color="#C8FFEB"/><stop offset=".65" stop-color="#C8FFEB"/><stop offset="1" stop-color="#008973"/></linearGradient><linearGradient id="paint_linear_42_1019_0" x1="17.381" y1="20.416" x2="19.717" y2="20.545" gradientUnits="userSpaceOnUse"><stop stop-color="#1A5EF0"/><stop offset=".23" stop-color="#125EF1"/><stop offset=".99" stop-color="#69FCFE"/></linearGradient></defs><path id="Vector" d="M18.396 0v21.103l-.047 19.298a.566.566 0 001.067.29l18.27-28.263L18.395 0z" fill="url(#paint_linear_42_1016_0)" fill-opacity="1" fill-rule="nonzero"/><path id="Vector" d="M18.396 0L.072 28.295a.557.557 0 00.706.785l14.132-6.375 3.439-1.57L18.396 0z" fill="url(#paint_linear_42_1017_0)" fill-opacity="1" fill-rule="nonzero"/><path id="Vector" d="M.025 28.687a.515.515 0 01.079-.47L18.396.032v.705L.127 28.922a.367.367 0 01-.102-.235z" fill="url(#paint_linear_42_1018_0)" fill-opacity="1" fill-rule="nonzero"/><path id="Vector" d="M18.651 40.945a.518.518 0 01-.243-.201.594.594 0 01-.095-.317L18.355 0l.347.268.064 40.604a.08.08 0 01-.115.073z" fill="url(#paint_linear_42_1019_0)" fill-opacity="1" fill-rule="nonzero"/><path id="Vector" d="M46.685 29.644v-18.67h6.163l4.397 16.487h.424V10.975h3.14v18.669h-6.1l-4.404-16.487h-.448v16.487h-3.172zm24.158.37a7.552 7.552 0 01-3.533-.785 6.07 6.07 0 01-2.45-2.355 6.94 6.94 0 01-.895-3.611v-.409a7.019 7.019 0 01.895-3.627 5.966 5.966 0 012.45-2.355 7.649 7.649 0 013.533-.785 7.57 7.57 0 013.525.785 5.928 5.928 0 012.434 2.355c.62 1.106.93 2.36.894 3.627v.424a6.939 6.939 0 01-.894 3.612 6.029 6.029 0 01-2.434 2.355 7.479 7.479 0 01-3.525.77zm0-2.716a3.683 3.683 0 002.748-1.084 4.092 4.092 0 001.067-3.022v-.267a4.122 4.122 0 00-1.067-3.03 4.035 4.035 0 00-5.496 0 4.12 4.12 0 00-1.068 3.03v.267a4.087 4.087 0 001.068 3.022 3.675 3.675 0 002.748 1.084zm10.112 2.346V16.47h3.007v1.523h.455a2.06 2.06 0 01.99-1.201 3.407 3.407 0 011.648-.377h1.57v2.724H87a3.22 3.22 0 00-2.16.707 2.702 2.702 0 00-.824 2.167v7.631h-3.061zm15.325.37a5.93 5.93 0 01-2.984-.785 5.715 5.715 0 01-2.214-2.308 7.555 7.555 0 01-.785-3.651v-.416a7.585 7.585 0 01.785-3.658 5.706 5.706 0 012.199-2.3 5.926 5.926 0 012.999-.786 6.402 6.402 0 012.08.298c.503.156.97.41 1.374.746.318.28.584.616.785.99h.448v-7.168h3.046v18.669h-2.96V27.91h-.455a4.595 4.595 0 01-1.43 1.452 5.22 5.22 0 01-2.888.652zm.91-2.662a3.75 3.75 0 002.748-1.083 4.152 4.152 0 001.091-3.077v-.267a4.13 4.13 0 00-1.075-3.094 3.736 3.736 0 00-2.756-1.067 3.807 3.807 0 00-2.74 1.067 4.09 4.09 0 00-1.107 3.094v.267a4.107 4.107 0 001.107 3.077 3.786 3.786 0 002.732 1.084zm16.895 2.662a7.46 7.46 0 01-3.47-.785 5.958 5.958 0 01-2.433-2.316 7.058 7.058 0 01-.895-3.65v-.41a7.058 7.058 0 01.895-3.65 5.975 5.975 0 012.433-2.355 7.462 7.462 0 013.47-.785 7.328 7.328 0 013.243.667 5.735 5.735 0 012.167 1.83 6.03 6.03 0 011.067 2.598l-2.959.612a3.917 3.917 0 00-.503-1.507 2.893 2.893 0 00-1.138-1.076 3.693 3.693 0 00-1.798-.4 4.086 4.086 0 00-1.955.463 3.285 3.285 0 00-1.366 1.405 4.713 4.713 0 00-.487 2.238v.267c-.025.77.142 1.533.487 2.222.308.592.783 1.08 1.366 1.405.6.324 1.273.488 1.955.48a3.347 3.347 0 002.465-.841 3.8 3.8 0 001.052-2.175l2.96.691a6.826 6.826 0 01-1.146 2.536 5.96 5.96 0 01-2.167 1.83 7.22 7.22 0 01-3.243.706zm15.789 0a7.55 7.55 0 01-3.533-.785 6.074 6.074 0 01-2.45-2.355 6.945 6.945 0 01-.895-3.611v-.409a7.022 7.022 0 01.895-3.627 5.965 5.965 0 012.45-2.355 7.648 7.648 0 013.533-.785 7.571 7.571 0 013.525.785 5.92 5.92 0 012.433 2.355c.621 1.106.93 2.36.895 3.627v.424a6.934 6.934 0 01-.895 3.612 6.028 6.028 0 01-2.433 2.355 7.48 7.48 0 01-3.525.77zm0-2.716a3.682 3.682 0 002.747-1.084 4.092 4.092 0 001.092-3.023v-.266a4.112 4.112 0 00-1.068-3.03 4.035 4.035 0 00-5.496 0 4.125 4.125 0 00-1.067 3.03v.267a4.093 4.093 0 001.067 3.022 3.678 3.678 0 002.725 1.084zm10.119 2.346V16.47H143v1.523h.456c.16-.514.515-.945.989-1.201a3.407 3.407 0 011.649-.377h1.57v2.724h-1.649a3.229 3.229 0 00-2.167.707 2.702 2.702 0 00-.824 2.167v7.631h-3.031zm15.961.37a6.955 6.955 0 01-3.477-.84 5.882 5.882 0 01-2.356-2.356 7.283 7.283 0 01-.84-3.587v-.322a7.431 7.431 0 01.785-3.596 5.906 5.906 0 012.356-2.355 6.88 6.88 0 013.438-.84 6.587 6.587 0 013.36.84 5.848 5.848 0 012.238 2.355 7.51 7.51 0 01.785 3.549v1.09h-9.892a3.332 3.332 0 001.091 2.482c.703.626 1.619.96 2.56.934a3.187 3.187 0 002.214-.66 4.48 4.48 0 001.122-1.499l2.536 1.303a8.21 8.21 0 01-1.083 1.57 5.8 5.8 0 01-1.877 1.382 6.694 6.694 0 01-2.96.55zm-3.548-8.4h6.744a2.923 2.923 0 00-.997-2.073 3.392 3.392 0 00-2.308-.785 3.218 3.218 0 00-3.439 2.85v.007z" fill="#FCFCFC" fill-opacity="1" fill-rule="nonzero"/></svg>
